X: 1
T: Bonnie Kate
R: reel
B: O'Neill's "1850" #1277
S: James Goodman (1828-1896) music manuscript collection, vol.3, pp.128,142. Mid-19th century, County Cork
B: P.H. Hughes -- Gems from the Emerald Isle (c.1860's, No.78, p.18)
B: Elias Howe - Musician's Omnibus Nos. 6 & 7 (Boston, 1880-1882, p.637)
B: Joyce - Old Irish Folk Music and Songs (1909), No.126
S: Fiddle Hell Online 2022-4-3 handout for Pat Mangan workshop
Z: 2022 John Chambers <jc:trillian.mit.edu>
M: C|
L: 1/8
K: D
|:\
A2dA B2AF | DFA(F E2)CE | DFAF GBed | cABc d3(B |
A2dA B2AF | DFA(F EA,)CE | DFAF GBed | cABc [1 d3B :|2 d2fg ||
|:\
a2fd Adfa | ~g3e cdef | ~g3f gbag | fgec def(g |
a2)fe Adfa | !g3e cdef | !g3f gbag | fgec [1 d2fg :| d3B |]
